X:490
T: Maeve's Mazurka (with piano acc.)
C: BB
R: waltz
Q: 1/8=350
M: 6/8
L: 1/8
V: 1 program 1 73 %flute
V: 2 volume=70 clef=bass m=D program 1 00
K: A
[V:1] D2|"A"E2 AB cB|"F#m"A2 a2 f2|"A"e2 c3 A|"C#m7"B2 c4|
[V:2] z2|A,,2[A2C2E2][A2C2E2]|F,2[F2A2C2][F2A2C2]|A,,2[A2C2E2][A2C2E2]|\
C,2[E2G2B2][E2G2B2]|
%
[V:1] "A"E2 AB cB|"F#m"A2 a2 f2|"A"ef ec BA|"Bm7"BA F4 |
[V:2] A,,2[A2C2E2][A2C2E2]|F,2[F2A2C2][F2A2C2]|A,,2[A2C2E2][A2C2E2]|\
B,,2[A2D2F2][A2D2F2]|
%
[V:1] "A"E2 AB cB|"F#m"A2 a2 f2|"A"e2 c3 A|"C#m7"B2 c4 |
[V:2] A,,2[A2C2E2][A2C2E2]|F,2[F2A2C2][F2A2C2]|A,,2[A2C2E2][A2C2E2]|\
C,2[E2G2B2][E2G2B2]|
%
[V:1] "A"E2 Ac A2|"B7"^D2 Ac A2|"E7"D2 GB e2|"A"A4 :|
[V:2] A,,2[A2C2E2][A2C2E2]|B,,2[A2^D2F2][A2^D2F2]|E,2[E2G2B2][E2G2B2]|\
[A,4C4E4] :|
%
[V:1] e2|"A"ab ag fe|"F#m"fg fe ce|"A"ag fe ce|"F#m"f4 c2 |
[V:2] z2|A,,2[A2C2E2][A2C2E2]|F,2[F2A2C2][F2A2C2]|A,,2[A2C2E2][A2C2E2]|\
F,2[F2A2C2][F2A2C2]|
%
[V:1] "E"ec B3 e|"A"c2 "E"B2 "F#m"A2|"B7"F2 ^D2 F2|"E7"B4 e2 |
[V:2] E,2[E2G2B2][E2G2B2]|[A,2C2E2][E,2G,2B,2][F,2A,2C2]|B,,2[A2^D2F2][A2^D2F2]|\
E,2[D2G2B2][D2G2B2]|
%
[V:1] "A"ab ag fe|"F#m"fg fe ce|"A"ag fe ce|"D"fe "E"cB "F#m"A2 |
[V:2] A,,2[A2C2E2][A2C2E2]|F,2[F2A2C2][F2A2C2]|A,,2[A2C2E2][A2C2E2]|\
[D,2F,2A,2][E,2G,2B,2][F,2A,2C2]|
%
[V:1] "A"E2 Ac A2|"B7"^D2 Ac A2|"E7"D2 GB e2|"A"A4 :|
[V:2]A,,2[A2C2E2][A2C2E2]|B,,2[A2^D2F2][A2^D2F2]|E,2[D2G2B2][D2G2B2]|\
[A,,4C,4E4]:|

%%%%%%%%%%%%%%%%%%%%%%%%%%%%%%%%%%%%%%%%%%%

